X:189
M:2/4
L:1/8
K:G
|: gage | dBAG | gfga | bgfe | gage | dBAG | AcAF | G2 [G,2G2] :|

